icons/op-external-link-24.svg

<svg width="24" height="24" viewBox="0 0 24 24" fill="none" xmlns="http://www.w3.org/2000/svg">
<path d="M6 7.33336C6 8.26664 6 15.7334 6 16.6666C6 17.3953 6.60469 18 7.33336 18C8.26664 18 15.7334 18 16.6666 18C17.3953 18 18 17.3953 18 16.6666C18 16.3556 18 14.8001 18 12H16.6666V16.6666H7.33336V7.33336H12V6H7.33336C6.44437 6.40313 6 6.8475 6 7.33336ZM13.3334 7.33336H15.724L9.52875 13.5286L10.4714 14.4713L16.6666 8.27602V10.6666H18V6H13.3334V7.33336Z" fill="black"/>
</svg>

<svg xmlns="http://www.w3.org/2000/svg" width="24" height="24" viewBox="0 0 24 24"><path d="M6 7.333v9.334C6 17.395 6.605 18 7.333 18h9.334c.728 0 1.333-.605 1.333-1.333V12h-1.333v4.667H7.333V7.333H12V6H7.333C6.444 6.403 6 6.848 6 7.333Zm7.333 0h2.391l-6.195 6.196.942.942 6.196-6.195v2.391H18V6h-4.667v1.333Z"/></svg>
